X:1
T:Title
%%score { ( 1 3 5 ) | ( 2 4 ) }
L:1/8
M:6/8
K:Bb
V:1 treble nm="Grand Piano"
V:3 treble 
V:5 treble 
V:2 bass 
V:4 bass 
V:1
 z3 z2[Q:1/4=93] [DF] | [DF]2 [DF] [B,D][CE][DF] | [GB][FA][EG] [DF]2 [DB] | c2 c B2 c | %4
[M:5/8] [Fd]-[Fd]- [Fd]3 |[M:1/8] [Fc] |[M:3/4] z2 z c z2 | [B,DF][B,D] [EG] [DF]2 [DB] | %8
 z2 z c z2 |[M:5/8] [A,CF]-[A,CF]- [A,CF]3 |[M:4/4] z2 z/ c3/2- c4 | z2 z/ B3/2- B4- | %12
 B2 z/ [Fd]3/2- [Fd]4 | z2 z/ [Fc]3/2- [Fc]4 | F<d .c2 z/[K:bass] F,3/2- F,/ z/ z | %15
 F<[K:treble]B .A2 z/ E3/2- E<E | z2 z/ F3/2- F4- | %17
[M:33/32] F/ z/4 z/4 z/4 z/4 z/4 z/4 z/4 z/4 z/4 z/4 z/4 z/4 z/4 z/4 z/4 z/4 z/4 z/4 z/ A/4-A/4-A/4-A/4-A/4-A/4-A/4-A/-<A/- | %18
 A3/4 z/4 z/4 z/4 z/4 z/4 z/4 z/4 z/4 z/4 z/4 z/4 z/4 z/4 z/4 z/4 z/4 z/4 z/4 z/4 z/4 z/4 z/4 z/4 z/4 z/4 z/4 z/4 z/4 z/ |] %19
V:2
 z3 z2 [B,,B,] | [B,,B,]2 [B,,B,] [B,,F,]2 [B,,B,] | [E,B,]2 [E,B,] [B,,B,]2 [B,,B,] | %3
 [F,A,E]2 [F,A,E] [F,G,D]2 [F,A,E] |[M:5/8] [B,,B,]-[B,,B,]- [B,,B,]3 |[M:1/8] [D,B,] | %6
[M:3/4] E,2 .E,2[K:treble] B[K:bass]E, | z F, [B,,B,] [B,,B,]2 [B,,F,] | %8
 [C,F,]2 .C,2[K:treble] B[K:bass]C, |[M:5/8] F,-F,- F,3 |[M:4/4] z4 [F,A,]<[F,A,] [F,A,]<[F,A,] | %11
 z4 [B,,F,]<[B,,F,] [B,,F,]<[B,,F,]- | [B,,F,]<[B,,F,]- [B,,F,]<[B,,B,]- [B,,B,]<B,,- B,,<B,, | %13
 [B,,B,]<[B,,B,] [B,,B,]<[F,A,]- [F,A,]<F,- F,<F, | %14
 [F,A,E]<[F,B,F] [F,A,F]<[B,,F,]- [B,,F,]<B,,- B,,/ z/ z | %15
 D<D C<[E,G,B,]- [E,G,B,]<[E,B,]- [E,B,]<[E,B,] | z2 z/[K:bass] D3/2- D4- | %17
[M:33/32] D/ z/4 z/4 z/4 z/4 z/4 z/4 z/4 z/4 z/4 z/4 z/4 z/4 z/4 z/4 z/4 z/4 z/4 z/4 z/ [F,CE]/4-[F,CE]/4-[F,CE]/4-[F,CE]/4-[F,CE]/4-[F,CE]/4-[F,CE]/4-[F,CE]/-<[F,CE]/- | %18
 [F,CE]3/4 z/4 z/4 z/4 z/4 z/4 z/4 z/4 z/4 z/4 z/4 z/4 z/4 z/4 z/4 z/4 z/4 z/4 z/4 z/4 z/4 z/4 z/4 z/4 z/4 z/4 z/4 z/4 z/4 z/ |] %19
V:3
 x6 | x6 | x6 | x6 |[M:5/8] x5 |[M:1/8] x |[M:3/4] [B,GB]2 [B,GB] [EG]2 [B,EG] | x6 | %8
 [CA]2 [A,FA] [C=E]2 [B,EG] |[M:5/8] x5 |[M:4/4] e<e .d2 E<E E<E | d<d .c2 D<D D<D- | %12
 D<[DB]- [DB]/ z/ z z/ B,3/2- B,<B, | [Ec]<[DB] .[Fd]2 z/ A,3/2- A,<A, | %14
 z2 z/ [DB]3/2- [DB]4[K:bass] | z2[K:treble] z/ G3/2- G4 | B<A .G2 B,<B, B,<B,- | %17
[M:33/32] B,/B/4-B/4-B/4-B/4-B/-<B/B/4-B/4-B/4-B/4-B/4-B/4-B/4-B/4-B/-<B/ z/4 z/4 z/4 z/4 z/4 z/4 z/4 z/4 z/4 z/ | %18
 [DB]/4-[DB]/4-[DB]/4-[DB]/4-[DB]/4-[DB]/4-[DB]/4-[DB]/-<[DB]/ z/4 z/4 z/4 z/4 z/4 z/4 z/4 z/4 z/4 z/4 z/4 z/4 z/4 z/4 z/4 z/4 z/4 z/4 z/4 z/4 z/ |] %19
V:4
 x6 | x6 | x6 | x6 |[M:5/8] x5 |[M:1/8] x |[M:3/4] z2 z .E,3[K:treble][K:bass] | B,,2 z2 z2 | %8
 z2 z .C,3[K:treble][K:bass] |[M:5/8] x5 |[M:4/4] x8 | x8 | x8 | x8 | z4 z2 z/ B,,3/2- | %15
 B,,<[D,^F,]- [D,F,]/ z/ z z4 | G<F .E2[K:bass] F,<F, F,<F,- | %17
[M:33/32] F,/[F,DF]/4-[F,DF]/4-[F,DF]/4-[F,DF]/4-[F,DF]/-<[F,DF]/[F,CE]/4-[F,CE]/4-[F,CE]/4-[F,CE]/4-[F,CE]/4-[F,CE]/4-[F,CE]/4-[F,CE]/4-[F,CE]/-<[F,CE]/ z/4 z/4 z/4 z/4 z/4 z/4 z/4 z/4 z/4 z/ | %18
 [B,,B,]/4-[B,,B,]/4-[B,,B,]/4-[B,,B,]/4-[B,,B,]/4-[B,,B,]/4-[B,,B,]/4-[B,,B,]/-<[B,,B,]/ z/4 z/4 z/4 z/4 z/4 z/4 z/4 z/4 z/4 z/4 z/4 z/4 z/4 z/4 z/4 z/4 z/4 z/4 z/4 z/4 z/ |] %19
V:5
 x6 | x6 | x6 | x6 |[M:5/8] x5 |[M:1/8] x |[M:3/4] x6 | x6 | x6 |[M:5/8] x5 |[M:4/4] x8 | x8 | x8 | %13
 x8 | z4 z2[K:bass] z/ F,3/2- | F,2[K:treble] z2 z4 | x8 |[M:33/32] x33/4 | x33/4 |] %19

